source/img/logo.svg

<svg width="200" height="55" viewBox="0 0 200 55" fill="none" xmlns="http://www.w3.org/2000/svg">
<path d="M106.15 9.306L94.95 0.246002L72.774 18.104L61.081 8.688L49.882 17.707L72.752 36.125L72.774 36.108L72.795 36.125L106.15 9.306Z" fill="url(#paint0_linear)"/>
<path d="M72.774 54.585L49.882 36.109V17.707L72.774 36.108V54.585Z" fill="url(#paint1_linear)"/>
<path d="M106.15 27.781L72.774 54.585V36.109L106.15 9.306V27.781Z" fill="url(#paint2_linear)"/>
<path d="M0.00012207 18.3725H10.5404V21.2685H3.25249V25.3753H10.0181V28.2713H3.25249V34.9896H0.00012207V18.3725Z" fill="#231F20"/>
<path d="M13.5313 32.0936H17.7329V21.2685H13.5313V18.3725H25.2111V21.2685H20.9855V32.0936H25.2111V34.9897H13.5313V32.0936Z" fill="#231F20"/>
<path d="M32.3087 26.4673L27.6087 18.3725H31.4067L33.8279 22.8825L34.3741 24.0936L34.8964 22.8825L37.3653 18.3725H41.0447L36.2733 26.4912L41.1873 34.9897H37.3889L34.849 30.2419L34.208 28.9599L33.5909 30.2419L30.9322 34.9897H27.2525L32.3087 26.4673Z" fill="#231F20"/>
<path fill-rule="evenodd" clip-rule="evenodd" d="M116.475 18.2418C115.676 18.3132 114.944 18.412 114.279 18.5383V34.9897H117.531V29.2686C117.661 29.2909 117.792 29.3068 117.923 29.316C118.105 29.332 118.291 29.3439 118.481 29.3514C118.671 29.3596 118.853 29.3637 119.027 29.3637H119.407C120.213 29.3659 121.015 29.258 121.792 29.0431C122.537 28.8407 123.235 28.4939 123.846 28.0223C124.456 27.5448 124.951 26.9363 125.294 26.2418C125.678 25.4304 125.865 24.5399 125.84 23.6426C125.882 22.6658 125.665 21.6954 125.211 20.8294C124.82 20.139 124.261 19.5591 123.585 19.1438C122.896 18.7317 122.134 18.4575 121.341 18.3366C120.521 18.2033 119.692 18.1358 118.861 18.135C118.069 18.1349 117.274 18.1704 116.475 18.2418ZM118.22 20.9717C118.505 20.9478 118.805 20.9359 119.122 20.9359C119.528 20.9355 119.934 20.9753 120.333 21.0546C120.709 21.1266 121.068 21.2718 121.389 21.4821C121.7 21.6909 121.957 21.9719 122.137 22.3012C122.34 22.701 122.438 23.1464 122.421 23.5948C122.443 24.1098 122.341 24.6225 122.125 25.0904C121.943 25.4523 121.669 25.7596 121.329 25.9809C120.986 26.1989 120.603 26.348 120.202 26.4199C119.783 26.4991 119.358 26.5387 118.932 26.5383H118.635C118.501 26.5383 118.362 26.5349 118.22 26.5267C118.077 26.5187 117.943 26.5069 117.816 26.4912C117.72 26.4808 117.625 26.4649 117.531 26.4435V21.0546C117.705 21.0229 117.935 20.9952 118.22 20.9717Z" fill="#231F20"/>
<path d="M128.451 18.3725H139.347V21.2685H131.703V25.1378H138.754V28.0338H131.703V32.0936H139.466V34.9896H128.451V18.3725Z" fill="#231F20"/>
<path d="M151.549 26.1351L151.668 23.5474H151.525L148.866 27.8917H148.297L145.519 23.5474H145.4L145.543 25.8737V34.9897H142.457V18.3725H145.757L148.605 22.9777H148.7L151.525 18.3725H154.801V34.9897H151.549L151.549 26.1351Z" fill="#231F20"/>
<path fill-rule="evenodd" clip-rule="evenodd" d="M157.697 23.049C157.432 24.241 157.304 25.4597 157.317 26.6809C157.308 27.8525 157.419 29.0219 157.65 30.1706C157.835 31.1405 158.201 32.0667 158.73 32.9008C159.217 33.6499 159.887 34.2626 160.676 34.681C161.578 35.1319 162.577 35.3521 163.585 35.322C165.449 35.4407 167.239 34.5707 168.297 33.0311C169.435 31.1162 169.977 28.9052 169.852 26.6809C169.861 25.5088 169.746 24.339 169.507 23.1912C169.315 22.2218 168.944 21.2963 168.415 20.4613C167.931 19.7143 167.265 19.1019 166.481 18.6808C164.69 17.8435 162.624 17.8261 160.819 18.6334C160.036 19.0288 159.363 19.6119 158.86 20.3306C158.301 21.1531 157.906 22.0762 157.697 23.049ZM160.843 28.9363C160.769 28.1868 160.733 27.434 160.736 26.6809C160.669 25.2245 160.87 23.7681 161.329 22.3844C161.673 21.4518 162.594 20.8605 163.585 20.9359C164.13 20.9082 164.667 21.0721 165.104 21.3992C165.499 21.7296 165.798 22.16 165.97 22.6454C166.182 23.2339 166.31 23.8492 166.35 24.4733C166.406 25.1699 166.433 25.9058 166.433 26.6809C166.44 27.5334 166.396 28.3854 166.303 29.2327C166.243 29.8507 166.086 30.4554 165.84 31.0252C165.656 31.4553 165.351 31.8224 164.961 32.0817C164.544 32.3251 164.067 32.4445 163.585 32.426C163.053 32.4529 162.528 32.2934 162.101 31.975C161.712 31.6507 161.417 31.2286 161.246 30.7523C161.032 30.1673 160.897 29.5567 160.843 28.9363Z" fill="#231F20"/>
<path d="M181.223 28.0339H175.857V34.9897H172.605V18.3725H175.857V25.1379H181.223V18.3725H184.475V34.9897H181.223V28.0339Z" fill="#231F20"/>
<path d="M189.175 32.3782H191.881V20.9836H189.602V23.8561H186.991V18.3725H200V23.8561H197.389V20.9836H195.134V32.3782H197.816V34.9897H189.175V32.3782Z" fill="#231F20"/>
<defs>
<linearGradient id="paint0_linear" x1="49.8587" y1="0.0818316" x2="49.7741" y2="36.089" gradientUnits="userSpaceOnUse">
<stop stop-color="#E07053"/>
<stop offset="1" stop-color="#FF8363"/>
</linearGradient>
<linearGradient id="paint1_linear" x1="38.0412" y1="45.2085" x2="79.3601" y2="69.8052" gradientUnits="userSpaceOnUse">
<stop stop-color="#FF6640"/>
<stop offset="1" stop-color="#D94B27"/>
</linearGradient>
<linearGradient id="paint2_linear" x1="79.2852" y1="-11.9556" x2="28.3639" y2="31.7379" gradientUnits="userSpaceOnUse">
<stop stop-color="#EB4015"/>
<stop offset="1" stop-color="#D94B27"/>
</linearGradient>
</defs>
</svg>

<svg width="200" height="55" fill="none" xmlns="http://www.w3.org/2000/svg"><path d="M106.15 9.306L94.95.246 72.774 18.104 61.081 8.688l-11.199 9.019 22.87 18.418.022-.017.021.017L106.15 9.306z" fill="url(#paint0_linear)"/><path d="M72.774 54.585L49.882 36.109V17.707l22.892 18.401v18.477z" fill="url(#paint1_linear)"/><path d="M106.15 27.781L72.774 54.585V36.109L106.15 9.306v18.475z" fill="url(#paint2_linear)"/><path d="M0 18.372h10.54v2.896H3.252v4.107h6.766v2.896H3.252v6.719H0V18.372zm13.531 13.722h4.202V21.268H13.53v-2.896h11.68v2.896h-4.226v10.826h4.226v2.896H13.53v-2.896zm18.778-5.627l-4.7-8.095h3.798l2.42 4.51.547 1.212.522-1.212 2.47-4.51h3.679l-4.772 8.12 4.914 8.498H37.39l-2.54-4.748-.641-1.282-.617 1.282-2.659 4.748h-3.68l5.057-8.523z" fill="#231F20"/><path fill-rule="evenodd" clip-rule="evenodd" d="M116.475 18.242a22.6 22.6 0 00-2.196.296V34.99h3.252v-5.721c.13.022.261.038.392.047a12.68 12.68 0 001.104.048h.38a8.854 8.854 0 002.385-.32 5.888 5.888 0 002.054-1.022 5.167 5.167 0 001.448-1.78 5.705 5.705 0 00.546-2.6 5.545 5.545 0 00-.629-2.813 4.69 4.69 0 00-1.626-1.685 6.189 6.189 0 00-2.244-.807 15.489 15.489 0 00-2.48-.202c-.792 0-1.587.035-2.386.107zm1.745 2.73c.285-.024.585-.036.902-.036.406 0 .812.04 1.211.119a2.94 2.94 0 011.056.427c.311.209.568.49.748.82.203.399.301.844.284 1.293a3.24 3.24 0 01-.296 1.495c-.182.362-.456.67-.796.89a3.132 3.132 0 01-1.127.44c-.419.08-.844.119-1.27.118h-.297a7.206 7.206 0 01-.819-.047 2.492 2.492 0 01-.285-.047v-5.39a7.4 7.4 0 01.689-.082z" fill="#231F20"/><path d="M128.451 18.372h10.896v2.896h-7.644v3.87h7.051v2.896h-7.051v4.06h7.763v2.896h-11.015V18.372zm23.098 7.763l.119-2.588h-.143l-2.659 4.345h-.569l-2.778-4.345h-.119l.143 2.327v9.116h-3.086V18.372h3.3l2.848 4.606h.095l2.825-4.606h3.276V34.99h-3.252v-8.855z" fill="#231F20"/><path fill-rule="evenodd" clip-rule="evenodd" d="M157.697 23.049a15.954 15.954 0 00-.38 3.632 17.036 17.036 0 00.333 3.49c.185.97.551 1.896 1.08 2.73a5.261 5.261 0 001.946 1.78 6.11 6.11 0 002.909.641 5.309 5.309 0 004.712-2.29 11.2 11.2 0 001.555-6.351 16.496 16.496 0 00-.345-3.49 8.01 8.01 0 00-1.092-2.73 5.283 5.283 0 00-1.934-1.78 6.806 6.806 0 00-5.662-.048 5.316 5.316 0 00-1.959 1.698 7.722 7.722 0 00-1.163 2.718zm3.146 5.887a22.06 22.06 0 01-.107-2.255 11.908 11.908 0 01.593-4.297 2.225 2.225 0 012.256-1.448 2.336 2.336 0 011.519.463c.395.33.694.761.866 1.246.212.589.34 1.204.38 1.828.056.697.083 1.433.083 2.208.007.852-.037 1.704-.13 2.552a5.982 5.982 0 01-.463 1.792c-.184.43-.489.797-.879 1.057a2.536 2.536 0 01-1.376.344 2.29 2.29 0 01-1.484-.451 2.842 2.842 0 01-.855-1.223 7.07 7.07 0 01-.403-1.816z" fill="#231F20"/><path d="M181.223 28.034h-5.366v6.956h-3.252V18.372h3.252v6.766h5.366v-6.766h3.252V34.99h-3.252v-6.956zm7.952 4.344h2.706V20.984h-2.279v2.872h-2.611v-5.484H200v5.484h-2.611v-2.872h-2.255v11.394h2.682v2.612h-8.641v-2.612z" fill="#231F20"/><defs><linearGradient id="paint0_linear" x1="49.859" y1=".082" x2="49.774" y2="36.089" gradientUnits="userSpaceOnUse"><stop stop-color="#E07053"/><stop offset="1" stop-color="#FF8363"/></linearGradient><linearGradient id="paint1_linear" x1="38.041" y1="45.209" x2="79.36" y2="69.805" gradientUnits="userSpaceOnUse"><stop stop-color="#FF6640"/><stop offset="1" stop-color="#D94B27"/></linearGradient><linearGradient id="paint2_linear" x1="79.285" y1="-11.956" x2="28.364" y2="31.738" gradientUnits="userSpaceOnUse"><stop stop-color="#EB4015"/><stop offset="1" stop-color="#D94B27"/></linearGradient></defs></svg>
